<?xml version="1.0" encoding="UTF-8"?>
<map version="1.10" tiledversion="1.12.2" orientation="orthogonal" renderorder="right-down" width="64" height="64" tilewidth="8" tileheight="8" infinite="0" nextlayerid="3" nextobjectid="1">
 <tileset firstgid="1" source="forest_tiles.tsx"/>
 <layer id="2" name="floor" width="64" height="64">
  <data encoding="csv">
25,26,38,26,26,25,26,24,25,26,26,26,24,25,26,49,37,24,24,24,24,24,24,24,25,26,58,0,47,47,47,47,35,35,35,36,24,24,25,26,35,35,35,35,35,24,24,24,24,25,26,24,24,25,26,36,24,24,24,25,26,24,24,24,
57,57,38,38,25,26,26,57,26,26,38,25,26,26,26,25,26,35,35,35,35,35,36,37,24,24,24,24,24,24,25,26,47,47,35,35,36,37,24,24,25,26,47,35,35,35,35,36,37,24,24,24,24,24,25,26,25,26,24,24,25,26,36,24,
35,26,36,37,38,38,26,57,57,57,57,38,38,38,25,26,26,26,26,26,26,48,35,35,35,35,35,35,36,24,24,24,24,24,25,26,35,35,36,24,24,25,26,47,47,47,48,35,35,35,35,35,36,24,24,24,24,25,26,26,25,26,24,25,
35,26,49,49,37,38,38,26,57,57,57,25,26,37,38,38,38,25,26,26,26,26,26,47,47,47,47,35,35,35,35,35,36,24,24,24,25,26,35,36,24,24,25,26,49,38,47,47,47,47,47,35,35,35,35,36,24,24,25,26,24,25,26,26,
35,35,26,49,49,37,38,38,25,57,57,57,25,26,49,36,24,24,25,26,38,38,26,26,26,38,47,47,47,47,47,35,35,35,36,37,24,24,24,25,26,24,25,26,56,56,56,57,58,26,47,47,47,47,35,35,36,24,24,25,26,24,25,26,
35,35,26,57,49,49,36,37,38,25,57,26,57,57,35,35,36,24,24,25,26,38,38,38,26,26,26,57,58,38,47,47,47,48,35,35,35,36,24,24,24,24,25,26,24,24,24,24,24,24,25,26,58,47,47,35,35,36,24,25,26,24,25,26,
35,35,26,57,47,48,49,26,58,58,35,47,57,24,24,24,24,24,24,24,26,49,37,38,38,38,25,26,26,26,58,49,37,47,47,47,35,35,35,35,36,24,24,24,25,26,35,35,36,24,56,57,58,56,47,47,35,36,24,25,26,26,25,26,
35,35,26,57,57,24,24,26,26,58,57,57,57,24,24,24,24,24,24,24,24,49,49,49,36,37,38,38,38,26,26,26,26,58,49,47,47,47,47,35,35,35,36,24,24,24,25,26,35,35,56,56,57,58,56,47,35,36,37,24,25,26,25,26,
35,57,57,57,35,36,24,25,26,58,57,57,57,24,24,24,24,24,24,24,24,26,26,24,25,26,49,37,38,38,38,38,26,26,26,26,26,49,47,47,47,35,35,35,36,37,24,24,24,25,26,56,57,58,56,47,48,35,36,24,25,26,26,26,
35,57,57,47,35,35,36,24,26,58,58,35,47,24,24,24,24,24,24,24,24,24,24,24,24,24,24,25,26,24,24,24,24,25,26,38,25,26,26,26,26,26,26,48,35,35,35,36,24,25,26,56,57,58,58,57,47,35,36,24,25,26,26,26,
35,35,48,47,47,35,35,24,25,26,58,58,35,47,24,24,24,24,24,24,24,24,35,35,35,36,37,24,24,25,26,36,37,24,24,24,24,24,24,25,26,38,25,26,26,26,26,26,26,26,26,58,56,57,58,57,47,35,36,24,24,25,26,26,
35,57,58,48,47,47,48,36,24,26,58,58,35,47,24,24,24,24,24,24,24,24,47,47,48,35,35,36,37,24,25,26,35,35,35,35,35,36,37,24,24,24,24,24,25,26,38,38,38,38,26,47,56,57,58,58,47,35,35,36,24,25,26,26,
35,56,57,58,49,49,47,26,24,26,26,58,58,35,47,24,24,24,24,24,24,24,24,49,47,47,48,35,36,37,24,24,25,26,47,47,48,35,35,35,35,35,36,37,24,24,24,24,25,26,26,26,56,57,58,58,47,47,35,36,24,25,26,26,
58,58,56,24,25,26,49,26,36,25,26,58,58,35,47,24,24,24,24,24,24,24,24,58,48,49,47,48,35,35,36,24,24,25,26,26,26,26,47,47,47,48,35,35,35,35,36,37,24,24,25,26,26,56,57,58,26,47,35,36,24,25,26,26,
58,35,36,24,25,26,49,38,26,24,26,26,58,58,35,47,24,24,24,24,24,24,24,24,58,57,47,47,47,35,35,36,24,24,25,26,38,25,26,26,56,47,47,47,47,48,35,35,36,37,24,24,25,26,57,58,26,47,35,36,24,25,26,26,
58,35,36,24,25,26,57,58,26,24,25,26,58,58,35,47,24,24,24,24,24,24,24,24,56,57,58,26,47,47,35,35,36,24,24,25,26,38,38,25,26,26,26,26,58,47,47,48,35,35,36,24,24,24,25,26,25,47,35,36,24,25,26,26,
58,35,36,24,25,26,56,57,38,36,24,26,58,58,35,47,24,24,24,24,24,24,24,24,56,56,57,58,25,47,47,35,35,36,24,24,25,26,37,38,38,38,38,25,26,26,26,47,47,35,35,35,36,24,24,25,26,47,35,36,24,25,26,25,
58,25,26,24,25,26,26,56,57,26,24,25,26,57,35,35,35,35,35,35,35,35,35,36,37,48,56,57,58,24,47,47,35,35,36,24,24,25,26,49,49,36,37,38,38,38,25,26,26,26,47,35,35,36,24,24,25,26,35,36,24,25,26,25,
58,25,26,24,25,57,26,56,56,26,36,24,25,26,47,47,47,47,47,47,47,47,35,35,38,24,49,56,57,58,25,47,47,35,35,36,24,25,26,47,48,49,49,49,36,37,38,38,38,25,26,26,26,35,36,24,25,26,26,36,37,24,25,26,
58,24,25,26,25,57,26,47,48,38,26,24,24,25,26,56,56,56,57,58,35,47,47,47,49,38,38,57,56,57,58,25,47,47,35,36,37,24,24,24,24,25,26,48,49,49,49,36,37,38,38,38,25,26,24,25,26,26,26,26,36,24,25,26,
58,24,25,26,25,57,25,26,47,56,26,36,24,25,26,26,57,56,56,56,56,57,58,24,37,37,38,56,56,56,57,58,25,47,48,35,35,35,35,36,24,24,25,26,38,47,48,49,49,49,36,37,35,36,24,25,26,26,38,25,26,26,25,26,
58,24,24,25,26,25,26,26,58,58,38,26,24,25,26,26,57,58,38,47,56,56,57,58,36,49,24,26,58,56,57,58,24,25,47,47,47,47,35,35,36,37,24,25,26,58,38,26,47,48,49,47,35,36,24,25,26,25,26,38,38,26,26,26,
58,26,49,49,37,38,26,26,57,58,47,26,26,26,26,26,56,57,58,26,47,35,56,56,49,36,57,26,26,26,56,56,56,56,57,58,48,47,47,48,35,36,24,24,25,26,58,56,57,58,58,47,35,36,24,25,26,38,25,26,38,38,25,26,
58,35,26,49,49,37,26,57,56,57,58,38,38,38,25,26,26,57,58,38,47,48,35,56,38,24,49,37,26,58,56,56,57,56,56,57,58,49,38,47,35,35,36,24,25,26,49,56,57,58,58,47,35,36,24,25,26,37,38,25,26,37,38,38,
58,35,26,48,49,57,57,26,25,26,57,58,58,47,56,56,57,58,56,56,57,58,35,47,38,48,49,36,56,26,56,56,57,58,47,56,57,58,37,47,47,35,36,37,24,25,26,56,57,58,57,47,35,36,24,25,26,36,37,38,25,26,37,38,
58,35,26,56,47,57,57,57,57,26,57,56,57,58,58,47,56,57,58,56,56,24,24,25,25,24,48,37,58,37,56,57,58,58,58,56,56,57,58,38,47,48,35,36,24,25,26,56,57,58,56,47,35,36,24,25,26,49,36,37,38,25,26,36,
58,35,26,56,24,24,26,57,57,56,57,56,57,58,26,58,58,35,47,24,24,24,24,24,24,24,24,48,49,36,37,56,57,58,58,47,56,57,58,38,25,47,35,36,37,24,25,26,57,58,49,47,35,36,24,25,26,48,49,36,37,38,25,26,
58,35,35,35,35,36,26,57,24,24,24,24,24,25,25,26,57,35,35,35,35,35,35,35,35,35,36,24,25,26,36,56,57,58,57,47,48,56,57,58,38,47,48,35,36,37,24,25,26,58,38,47,35,36,24,25,26,47,48,49,36,37,38,25,
58,35,47,47,35,35,26,26,26,35,35,36,24,24,24,25,26,47,47,47,47,47,47,47,47,35,35,24,24,24,24,25,26,58,57,58,47,56,57,58,38,38,47,48,35,36,24,25,26,58,38,47,35,36,24,25,26,47,47,48,49,36,37,38,
58,35,48,47,47,35,26,38,26,26,35,35,36,37,24,24,25,26,56,56,56,57,58,35,47,47,47,35,35,36,24,24,25,26,58,58,47,48,56,57,58,38,38,47,35,36,37,24,24,24,25,26,35,36,24,25,26,24,25,47,48,49,36,37,
58,57,58,48,47,47,26,38,38,26,26,48,35,36,36,24,25,26,26,57,56,56,56,56,57,58,24,47,35,35,36,37,24,24,25,26,58,47,48,56,57,58,38,47,48,35,35,35,36,37,24,24,25,26,24,25,26,58,24,24,47,48,35,36,
58,56,57,58,49,49,26,37,38,38,26,26,26,35,26,24,25,26,26,57,58,38,47,56,56,57,58,47,47,48,35,35,36,24,24,25,26,26,47,56,57,58,37,47,47,47,47,48,35,35,36,24,24,25,26,26,26,57,58,35,36,47,35,36,
58,49,49,37,38,26,26,49,37,38,38,38,26,26,26,26,26,26,26,56,57,58,26,47,35,56,56,25,26,47,47,35,35,36,24,25,26,56,56,56,56,56,56,57,58,48,49,47,47,35,35,36,24,25,26,25,26,56,57,58,35,47,35,36,
58,26,49,49,37,26,26,49,49,49,37,38,38,38,38,38,38,25,26,26,57,58,38,47,48,35,56,57,58,26,47,47,35,36,37,24,25,26,57,58,56,57,58,56,56,57,58,37,47,47,35,36,24,25,26,26,25,56,57,58,58,47,35,36,
58,26,48,49,49,26,26,47,48,49,49,49,37,38,38,38,38,25,26,26,57,58,38,47,48,35,56,56,57,58,58,47,48,35,36,24,24,25,26,38,56,57,58,58,56,56,57,58,58,47,35,36,24,24,25,26,24,56,57,58,58,47,48,35,
58,26,56,47,48,26,26,58,56,47,48,49,49,49,49,36,24,24,24,25,26,58,38,38,47,35,36,56,57,24,24,25,26,35,35,36,24,25,26,25,26,57,58,58,58,56,57,58,57,47,35,35,36,24,25,26,26,56,57,58,58,58,47,35,
58,26,56,24,24,26,57,58,58,58,58,24,24,25,26,35,35,36,24,24,25,26,58,38,47,35,36,35,35,36,24,25,26,47,35,36,37,24,25,26,26,56,57,58,58,56,57,58,58,47,47,35,36,24,25,26,26,36,56,57,58,26,47,35,
58,35,35,35,36,26,49,37,38,26,26,36,24,24,25,26,35,35,36,24,24,25,26,37,47,35,47,47,35,36,24,25,26,47,48,35,36,24,25,26,26,58,56,57,58,56,56,57,58,56,47,35,36,24,25,26,25,26,56,57,58,58,47,35,
58,47,47,35,35,48,49,37,38,38,26,35,36,24,25,26,47,35,35,36,24,25,26,56,57,58,47,47,35,36,24,24,25,26,47,35,36,24,24,25,26,57,58,56,57,58,56,57,58,58,47,35,36,37,24,25,26,26,26,57,58,58,47,47,
58,48,47,47,35,48,49,49,37,38,26,35,36,24,25,26,47,47,35,36,37,24,25,26,57,58,26,47,35,35,36,24,25,26,26,35,35,36,24,25,26,24,24,24,25,26,56,57,58,58,47,48,35,36,24,25,26,38,26,56,57,58,37,47,
58,58,48,47,47,47,48,49,37,38,26,35,36,24,25,26,49,47,48,35,36,24,25,26,57,58,26,47,47,35,36,24,25,26,26,26,35,36,24,25,26,35,36,24,24,25,26,57,58,57,58,47,24,25,26,26,25,26,25,26,57,58,58,47,
58,57,58,49,49,47,48,49,37,38,26,26,36,24,25,26,48,49,47,35,36,37,24,25,26,57,58,38,47,35,36,24,25,26,38,26,26,36,24,25,26,35,35,36,37,24,25,26,57,58,35,36,37,24,25,26,26,26,38,25,26,58,58,36,
58,56,24,25,26,47,48,49,37,38,38,26,26,25,26,26,58,48,47,48,35,36,24,25,26,57,58,58,47,35,36,24,25,26,38,38,26,26,37,24,25,26,48,35,36,37,24,25,26,47,48,35,36,24,25,26,26,25,26,38,26,57,58,35,
58,36,24,25,26,47,48,49,49,37,38,38,26,26,26,57,58,47,48,47,35,36,24,25,26,26,58,58,47,35,36,24,25,26,37,38,38,26,26,24,25,26,47,48,35,36,24,24,25,26,47,35,36,24,25,26,26,26,26,38,25,26,58,58,
58,36,24,25,26,49,47,48,49,49,37,38,38,38,57,56,57,58,47,47,35,36,24,25,26,26,26,57,47,35,36,24,25,26,49,37,38,38,26,26,25,26,26,47,35,35,36,24,25,26,47,35,36,37,24,25,26,26,26,26,38,26,26,58,
58,36,24,25,26,58,57,47,48,49,49,49,58,37,56,56,57,58,35,47,35,36,24,25,26,38,26,26,47,35,36,24,25,26,49,49,37,38,38,26,26,26,26,26,26,35,36,24,25,26,47,48,35,36,24,25,26,38,26,26,38,38,26,58,
58,26,24,25,26,58,58,58,26,25,26,26,57,58,37,56,57,58,58,47,35,36,24,25,26,38,38,25,26,35,36,37,24,25,26,49,49,37,38,38,26,26,38,38,26,26,36,24,25,26,58,47,35,36,24,25,26,38,26,26,26,38,25,26,
58,26,24,25,26,49,37,38,25,26,25,26,26,26,26,56,57,58,58,47,35,24,25,26,49,36,37,38,25,26,35,36,24,25,26,48,49,49,37,38,38,49,37,38,38,25,26,26,26,26,58,47,35,36,24,24,24,24,24,25,26,37,38,26,
58,58,58,47,48,49,36,37,38,26,24,25,26,38,26,26,26,26,57,35,24,25,26,26,48,49,36,37,38,25,26,36,24,25,26,47,48,49,49,47,48,49,49,36,37,38,38,38,38,58,57,24,35,35,35,35,35,36,24,24,24,25,26,25,
58,58,35,35,47,48,49,37,38,25,26,26,26,26,38,38,38,26,26,26,26,26,26,35,47,48,49,36,37,38,25,26,24,25,26,56,57,58,58,49,56,47,48,49,49,49,49,26,26,35,36,47,47,47,47,47,35,35,35,36,24,24,25,26,
58,57,58,47,47,48,49,36,37,38,38,26,26,26,49,37,38,38,38,38,38,38,58,48,35,47,48,49,36,37,38,25,26,25,26,58,25,56,57,58,58,58,58,38,38,25,26,26,26,56,56,56,57,58,38,47,47,47,35,35,36,24,25,26,
58,57,58,56,57,47,48,49,49,37,38,38,24,25,26,49,49,49,49,49,58,56,57,58,47,48,47,48,49,36,37,38,25,26,26,57,58,58,56,47,48,49,49,36,37,38,38,26,26,58,47,24,24,24,25,26,26,47,47,35,36,37,24,25,
58,56,57,58,58,58,47,48,49,49,35,36,24,25,26,58,48,49,49,56,56,57,56,57,58,47,47,47,48,49,36,37,38,25,26,56,57,58,58,57,58,47,48,49,49,37,38,38,58,35,35,35,36,24,25,26,58,26,47,48,35,36,24,25,
58,38,56,57,58,58,58,58,49,47,35,24,25,26,58,58,47,48,49,49,58,56,56,56,57,58,47,47,47,48,49,36,37,38,26,49,49,56,57,58,58,58,47,48,49,49,26,57,47,47,47,35,36,24,25,26,58,26,25,47,35,36,37,24,
58,38,38,26,26,26,57,58,57,24,25,26,26,26,58,58,25,26,56,57,58,38,56,56,56,57,58,38,47,47,48,49,24,25,26,48,47,48,56,57,58,58,37,38,38,38,56,57,58,48,47,24,25,26,26,26,26,58,26,47,48,35,36,24,
58,37,38,38,38,26,26,26,26,26,26,26,38,26,36,24,25,26,56,57,58,58,49,47,56,56,57,58,38,26,35,36,24,25,26,58,58,58,57,47,48,49,49,49,24,25,26,26,26,26,26,26,26,38,38,38,26,26,24,24,47,35,36,37,
58,49,49,37,38,38,38,38,38,38,38,26,24,25,26,25,26,26,24,56,57,58,48,47,48,49,49,37,38,25,26,36,24,25,26,56,57,58,58,58,35,35,35,36,37,24,24,25,26,38,38,38,49,49,37,38,38,25,26,26,47,48,35,36,
58,48,49,49,49,49,49,49,49,26,26,36,24,25,26,26,26,36,24,56,57,58,58,24,47,48,49,36,37,38,26,26,24,25,26,49,37,38,26,26,26,26,26,26,26,26,26,26,26,26,26,26,26,49,49,36,37,38,38,26,26,47,35,36,
58,58,58,58,58,24,24,24,24,24,24,24,24,24,24,24,24,24,24,24,56,57,58,24,25,47,48,49,37,38,38,26,26,25,26,49,37,38,26,38,38,38,38,38,38,38,38,38,38,38,38,38,25,26,26,26,26,26,26,26,26,26,26,26,
58,47,35,35,35,35,35,35,35,35,35,35,35,35,35,35,35,35,35,35,35,56,57,58,24,47,48,49,49,37,38,38,26,25,26,49,37,38,26,49,49,49,49,49,49,49,49,49,49,49,36,37,38,38,38,38,38,38,38,38,38,38,38,38,
58,47,47,47,47,47,47,47,47,47,47,47,47,47,47,47,47,47,47,47,47,56,57,58,58,56,47,48,49,49,37,38,25,26,26,49,37,38,26,58,58,58,58,58,58,58,35,35,47,48,49,49,49,49,49,49,49,49,49,49,49,49,49,37,
58,56,56,56,56,56,56,56,56,56,56,56,56,56,56,56,56,57,58,38,49,47,56,57,58,58,57,47,48,49,36,37,38,38,48,49,37,38,26,26,26,47,47,47,56,57,58,58,58,58,58,58,58,58,58,58,58,58,58,47,47,48,49,49,
57,58,56,47,48,49,49,49,49,58,58,56,57,47,48,49,49,56,56,56,56,56,56,56,57,58,57,58,47,48,49,49,48,47,48,49,37,38,38,26,26,24,24,25,26,56,56,56,56,56,56,56,56,56,56,56,56,57,58,58,58,58,58,49,
57,58,58,58,58,58,58,58,58,56,57,58,58,58,58,58,58,58,0,0,0,0,0,56,56,57,58,58,57,56,57,58,47,47,48,49,49,37,38,38,26,26,37,24,24,24,25,26,0,0,0,0,56,57,58,56,57,58,58,58,49,49,49,37
</data>
 </layer>
 <layer id="1" name="sides" width="64" height="64">
  <data encoding="csv">
1,2,3,4,5,6,3,4,5,6,3,4,5,6,1,2,3,4,5,6,1,2,3,4,5,6,4,5,6,1,2,3,1,2,3,4,5,6,3,4,5,6,6,6,1,2,3,4,5,1,2,3,4,5,6,1,2,3,4,7,27,9,9,9,
6,7,14,15,16,17,18,15,16,17,18,16,14,15,16,17,18,17,18,14,15,14,15,16,17,18,16,17,18,14,14,15,16,17,18,16,17,14,15,16,17,18,18,14,15,16,17,18,17,18,14,15,16,17,18,14,15,16,17,48,8,9,9,9,
6,34,0,0,0,0,0,68,64,68,68,0,0,0,0,62,56,56,56,0,0,0,0,0,0,0,62,63,62,0,0,0,0,0,0,0,0,63,0,0,0,0,0,0,0,0,0,0,0,0,0,0,0,0,0,0,0,0,0,0,32,9,9,9,
5,67,0,0,0,0,0,0,0,0,64,68,68,0,0,0,62,56,56,56,0,0,0,0,68,0,63,63,62,68,0,0,0,0,0,0,0,64,64,62,0,0,0,0,0,0,0,0,0,0,0,0,0,0,0,64,0,0,0,0,20,9,9,9,
3,23,0,68,113,0,0,0,0,0,68,68,68,0,0,0,62,27,31,0,0,0,0,68,68,64,64,64,63,64,68,68,63,0,111,0,0,0,0,0,0,0,0,0,0,0,0,0,0,0,0,0,0,64,63,0,0,0,0,0,8,10,9,9,
6,23,68,68,68,0,0,113,0,0,68,68,64,113,0,0,27,10,9,31,111,0,0,0,68,0,0,0,63,63,62,68,63,63,0,64,0,0,0,0,57,0,0,0,0,0,0,0,0,0,0,0,0,63,64,0,0,0,0,0,8,10,10,9,
5,34,68,68,0,0,0,0,0,0,0,68,68,68,0,27,10,11,11,10,31,0,0,0,68,68,0,0,0,0,0,0,0,68,63,62,64,113,0,0,57,0,0,0,0,0,0,0,0,0,0,0,63,64,0,111,0,0,0,0,20,9,9,9,
3,67,0,64,68,0,0,0,0,0,64,68,68,0,0,8,11,10,11,10,46,0,0,0,0,0,0,0,0,0,0,0,0,64,62,0,0,0,0,0,57,0,0,0,0,0,0,0,0,0,0,0,0,0,64,63,0,0,0,0,8,9,9,10,
3,34,68,64,68,0,0,0,111,0,68,68,68,0,0,65,9,9,44,46,0,111,0,0,64,64,64,113,0,0,113,0,0,63,62,0,0,0,64,0,57,0,0,113,0,0,0,0,0,0,0,0,0,0,0,63,63,0,0,0,8,9,9,9,
5,34,64,68,0,0,0,0,0,0,0,68,0,0,0,0,65,46,0,0,56,56,64,63,64,64,64,63,64,0,0,0,63,64,62,111,0,57,64,0,0,0,63,64,0,62,111,0,0,0,0,0,0,0,0,0,0,0,0,0,8,9,9,9,
5,67,68,0,0,113,0,0,0,0,0,68,68,0,0,0,0,0,0,0,0,56,63,0,0,64,64,64,64,0,0,0,0,62,63,0,64,64,0,0,0,0,0,64,64,0,0,0,0,0,0,0,0,0,0,0,0,0,0,0,32,9,10,9,
6,34,0,0,0,0,0,0,111,0,0,68,0,0,0,0,0,0,0,0,0,0,0,0,63,63,63,63,0,113,0,0,62,0,0,0,0,0,0,0,0,0,62,0,63,62,0,0,0,0,0,0,0,0,0,0,0,0,0,0,20,10,9,9,
6,34,0,0,0,0,0,0,0,0,68,64,68,64,0,0,0,0,0,0,0,0,0,63,63,64,0,63,0,0,0,0,0,0,0,0,0,0,0,0,0,0,0,63,63,0,0,113,0,0,0,0,0,0,0,0,0,0,0,0,8,10,9,9,
6,34,0,0,0,0,0,0,0,0,0,68,68,68,68,113,0,0,0,0,0,0,0,0,0,0,0,0,0,0,0,0,0,0,0,0,0,0,0,0,111,0,0,0,0,0,0,63,63,0,0,0,0,0,0,0,0,0,0,0,20,10,10,9,
6,34,0,0,0,0,0,0,0,0,0,68,68,64,68,68,0,0,0,0,0,0,0,0,0,0,0,0,0,0,0,0,0,0,0,0,0,0,0,0,0,0,0,0,0,0,0,0,0,63,113,0,0,62,0,0,0,0,0,0,8,10,9,9,
6,55,0,0,113,0,0,0,0,0,0,0,0,68,68,0,0,0,0,0,0,0,0,113,0,0,0,0,0,0,0,0,0,0,0,0,0,111,0,0,0,0,0,0,113,0,0,0,0,0,64,64,63,63,0,0,0,0,0,0,8,10,9,9,
6,55,0,0,0,0,0,0,0,0,0,0,0,0,68,0,0,0,0,0,0,0,0,0,0,0,0,0,0,0,0,0,0,0,0,0,0,0,0,0,0,0,0,0,0,0,0,0,0,0,63,64,63,62,62,0,0,0,0,0,20,9,9,9,
6,34,0,0,0,0,0,0,0,0,113,0,0,0,0,0,0,0,0,0,0,0,0,0,0,0,0,0,0,0,0,0,0,0,0,0,0,0,0,0,0,0,0,0,0,0,0,113,0,0,63,63,64,0,62,0,0,0,0,0,20,9,10,9,
6,55,0,0,0,64,68,113,0,0,0,0,0,0,0,0,0,0,0,0,113,0,0,0,0,0,0,0,0,0,0,0,0,0,0,0,0,0,0,0,0,0,0,0,0,0,0,0,0,0,0,0,64,0,0,0,0,0,0,0,8,10,9,9,
22,67,0,0,0,68,63,68,0,0,0,0,0,0,0,0,0,0,0,0,0,0,0,0,0,0,0,0,0,0,0,0,0,0,0,0,0,0,0,0,0,0,0,0,0,0,0,0,0,0,0,0,0,0,0,0,0,0,0,0,8,9,9,10,
54,67,0,68,63,68,64,68,0,0,111,0,0,0,0,0,0,0,0,0,0,0,0,0,0,0,0,0,0,0,111,0,0,63,64,0,0,0,0,0,0,0,0,0,0,0,0,0,0,0,0,0,0,111,0,0,0,0,0,0,8,21,9,9,
54,34,0,0,68,0,0,0,0,0,0,0,0,111,0,0,0,0,0,0,0,0,0,0,0,0,0,0,0,0,0,64,63,63,63,0,0,0,0,0,0,0,0,0,0,0,0,62,62,0,0,0,0,0,0,0,0,0,0,0,8,21,21,21,
3,23,0,0,0,0,0,0,0,0,0,0,0,0,0,0,0,0,0,0,0,0,0,0,0,0,0,113,0,0,0,0,0,64,63,0,0,113,0,0,0,0,0,0,0,0,0,62,62,62,0,0,0,0,0,0,0,0,0,0,20,21,9,21,
3,67,0,0,0,113,0,0,64,64,68,0,62,68,0,0,0,62,0,0,0,0,0,0,0,0,0,62,63,62,0,0,0,63,63,64,0,0,0,0,0,0,0,64,113,0,0,0,0,0,0,0,0,0,0,0,0,0,0,0,20,9,9,9,
3,67,0,0,0,63,68,68,64,63,0,0,68,68,111,0,0,68,68,0,0,0,0,0,0,57,57,62,63,62,113,0,0,63,0,0,0,0,0,0,0,0,64,63,63,64,64,0,0,0,0,0,0,0,0,0,0,0,0,0,8,9,9,9,
22,34,0,68,64,64,0,68,64,68,0,0,0,68,68,68,62,62,68,0,0,0,0,0,0,0,57,57,57,63,62,0,0,0,0,0,0,0,0,0,0,64,64,63,64,63,63,111,0,0,0,0,0,0,0,0,0,0,0,0,20,10,21,9,
6,67,0,0,0,68,68,68,63,68,113,0,0,0,0,0,68,68,68,68,0,0,0,0,0,0,0,57,62,62,62,0,0,0,0,0,0,0,0,0,0,0,0,0,0,0,0,0,0,0,0,0,0,63,0,0,0,0,0,0,20,10,9,9,
6,67,0,0,0,0,68,68,68,68,0,0,0,0,0,0,68,0,0,0,0,0,0,0,0,0,0,57,57,62,63,111,0,0,0,0,0,0,0,0,0,0,0,0,0,0,0,0,0,0,0,0,63,62,62,0,0,0,0,0,8,9,9,9,
6,67,0,0,0,0,63,0,68,0,0,0,0,111,0,0,0,0,0,0,0,0,0,0,0,0,0,0,0,57,0,63,0,0,0,0,0,0,0,0,0,0,0,0,0,0,0,0,0,0,0,0,0,62,63,111,0,0,0,0,8,9,10,10,
6,55,0,0,0,0,0,27,29,31,0,0,0,0,0,0,0,0,0,0,0,0,113,0,0,0,0,0,0,0,0,0,0,0,0,0,0,0,0,0,0,0,0,0,0,0,0,0,0,0,0,0,0,0,62,0,0,0,0,0,8,9,9,10,
6,23,0,0,0,0,0,20,10,10,31,0,0,0,0,0,0,0,0,0,0,0,0,0,0,0,0,0,0,0,0,0,0,0,0,0,0,0,0,0,0,0,0,0,0,0,0,0,62,62,0,0,0,0,0,0,0,0,0,0,8,9,11,9,
6,67,0,0,68,0,0,65,44,44,46,0,0,62,68,113,0,0,0,0,0,0,0,57,0,0,0,0,0,0,0,0,0,0,0,0,0,0,0,0,63,0,0,0,0,0,0,0,62,0,62,0,0,0,0,0,0,0,0,0,8,11,9,9,
54,67,0,68,68,0,68,64,0,0,0,68,62,68,0,0,0,0,0,57,57,0,0,57,57,0,0,0,0,0,0,0,0,0,56,0,0,0,0,0,63,0,0,0,113,0,0,62,62,62,64,0,0,0,0,0,0,0,0,0,8,9,9,9,
22,67,68,68,62,62,62,68,0,0,0,68,68,68,0,68,0,0,0,57,57,57,57,57,0,0,0,0,0,0,0,0,0,0,0,0,0,0,0,68,63,0,0,0,0,0,62,63,63,64,0,0,0,0,0,0,0,0,0,0,8,9,9,9,
6,67,68,68,64,68,62,62,0,0,0,0,0,0,68,0,0,0,0,0,0,0,57,57,0,0,0,0,0,0,0,0,0,0,0,0,0,0,68,63,68,111,0,0,0,0,0,63,63,62,0,0,0,0,0,0,0,0,0,0,20,10,11,9,
6,23,0,64,64,0,0,0,111,0,0,0,0,0,64,64,0,0,0,0,0,0,0,0,0,0,0,111,0,0,64,62,0,0,0,0,0,0,68,68,68,63,0,0,0,0,0,62,63,64,111,0,0,0,0,0,0,0,0,0,20,9,9,9,
6,67,68,68,68,0,0,0,0,0,0,113,0,0,64,64,0,0,0,0,0,0,0,0,0,0,0,0,0,63,63,62,0,0,0,0,0,0,0,0,0,0,47,0,111,0,0,0,0,0,0,0,0,113,0,0,0,0,0,0,8,21,11,9,
6,67,62,64,62,113,0,0,0,0,0,64,64,64,64,0,0,0,0,0,0,0,0,111,0,0,0,0,63,62,0,0,0,0,0,0,0,0,0,0,0,0,47,47,62,0,62,0,0,0,0,0,0,0,0,0,0,0,0,0,8,11,9,21,
6,67,63,62,64,62,64,64,111,0,0,0,0,0,0,0,0,0,0,0,0,0,64,64,63,62,0,0,0,0,0,0,0,0,0,0,0,0,0,111,0,0,64,63,62,62,62,111,0,0,0,0,0,0,0,0,0,0,0,0,8,21,9,9,
54,23,0,0,0,0,64,0,0,0,0,0,0,0,113,0,0,0,0,0,0,0,63,64,63,63,0,0,0,0,111,0,0,0,0,0,0,0,0,0,0,63,64,63,62,63,0,0,0,0,0,0,0,0,0,0,0,0,0,0,8,21,9,9,
54,34,0,0,0,0,0,0,0,0,0,113,0,0,0,0,0,0,0,0,0,62,63,64,63,64,113,0,0,0,0,0,0,0,0,0,0,0,0,0,62,62,62,62,63,0,0,0,0,0,111,0,0,0,0,0,0,0,0,0,8,10,11,21,
54,67,0,111,0,0,63,0,0,0,0,0,0,0,0,0,0,0,0,0,0,0,0,62,0,0,62,0,0,0,0,0,0,0,0,0,0,0,0,0,0,0,63,0,64,111,0,0,0,0,0,0,0,0,0,0,0,0,0,0,20,9,10,9,
54,67,0,64,64,63,64,0,0,0,0,0,0,0,111,0,0,0,0,0,0,0,0,0,0,0,62,0,0,0,0,0,0,0,0,0,0,0,0,0,0,0,0,0,0,0,0,0,0,0,0,0,0,0,0,0,0,0,0,0,8,9,10,9,
54,23,63,62,0,0,0,0,0,113,0,0,0,0,0,64,63,64,0,0,0,0,0,0,0,0,0,111,0,0,0,0,0,0,0,0,0,0,0,0,0,0,0,0,0,0,0,0,0,0,0,0,0,0,0,0,0,0,0,0,20,9,9,9,
22,23,62,62,0,0,0,0,0,0,0,0,0,0,0,63,64,0,0,0,0,0,0,113,0,0,27,28,28,31,113,0,0,0,0,0,57,0,0,0,0,0,0,0,0,0,0,0,0,0,0,0,0,0,0,0,0,0,0,0,20,9,9,9,
4,67,62,62,111,0,0,0,0,0,63,64,113,0,0,0,0,0,0,0,0,0,0,0,0,27,9,21,21,21,31,0,0,0,0,57,57,113,0,0,0,0,0,0,0,0,0,0,0,0,0,0,0,0,0,0,0,0,0,0,20,9,9,9,
54,67,0,62,62,64,0,0,0,63,64,63,63,0,0,0,0,0,0,0,0,0,0,0,0,20,21,9,9,9,53,0,0,0,0,0,57,57,57,0,0,0,0,0,0,0,0,0,0,0,0,0,0,0,0,0,0,0,0,0,8,9,9,9,
4,34,0,62,64,64,0,0,0,0,0,0,64,63,0,0,0,0,0,0,0,0,0,0,0,65,9,9,9,9,46,0,0,0,0,0,0,0,57,0,0,0,0,0,0,0,0,0,0,0,0,0,0,113,0,0,63,0,0,0,8,9,9,9,
54,23,0,64,64,64,111,0,0,0,0,0,0,64,0,0,0,0,0,0,0,0,0,0,0,0,65,44,43,46,0,0,0,0,0,0,0,0,0,0,0,0,0,0,0,0,113,0,0,0,0,0,0,63,64,63,64,0,0,0,20,9,9,9,
54,67,0,0,64,64,0,62,0,113,0,0,64,0,0,0,0,0,0,0,0,0,0,0,0,0,0,0,0,0,0,0,0,0,0,0,0,0,0,0,0,0,111,0,0,64,0,0,64,0,0,0,0,0,64,0,0,0,0,0,20,11,11,9,
6,23,0,0,0,64,0,62,0,62,62,0,0,0,0,0,0,0,0,0,0,0,0,0,0,0,0,0,0,0,0,0,0,0,0,0,0,0,0,0,0,0,0,0,64,0,0,0,0,0,0,0,0,0,0,0,0,0,0,0,8,11,9,9,
6,67,0,0,0,0,0,0,0,0,0,0,0,0,0,0,0,62,63,113,0,0,62,0,0,0,0,0,0,0,0,0,0,0,0,0,62,113,0,0,0,0,0,64,64,63,0,0,0,0,0,0,0,0,0,0,0,0,0,0,8,9,11,9,
6,67,113,0,0,0,0,0,0,0,0,113,0,0,63,0,64,62,62,62,63,0,0,0,0,0,68,64,0,68,0,0,0,0,0,0,0,62,62,0,111,0,0,0,64,63,111,0,0,0,0,0,0,0,0,0,0,0,0,0,8,9,11,11,
6,67,0,0,0,0,0,111,0,0,0,64,64,64,63,64,62,0,0,0,0,0,0,0,0,64,64,0,0,0,0,0,0,0,0,0,0,0,0,0,0,0,0,64,63,64,0,0,0,0,0,0,0,0,62,113,0,0,0,0,20,9,9,21,
6,23,0,0,0,0,0,0,0,0,64,64,63,63,0,0,0,0,0,0,0,0,0,68,0,0,63,0,0,0,111,0,0,63,0,0,0,0,0,0,0,62,63,64,63,0,0,0,0,0,0,0,0,62,0,62,68,68,0,0,8,21,9,9,
6,34,0,111,0,0,0,0,0,0,0,0,0,64,0,0,0,0,0,0,0,0,0,0,0,0,68,113,0,0,62,62,63,62,0,0,0,0,0,63,63,62,0,0,0,0,0,0,0,0,0,0,62,64,0,68,68,0,0,0,20,9,21,9,
6,67,62,0,0,62,0,0,0,0,0,0,0,64,113,0,0,0,0,0,0,0,64,113,0,0,0,0,0,0,0,62,62,0,0,0,0,0,0,0,62,63,63,0,0,0,0,0,0,0,0,0,64,0,64,0,0,0,0,0,20,9,9,9,
6,23,62,62,63,62,62,0,0,0,111,0,0,0,0,0,62,0,0,0,0,0,63,64,63,0,0,0,0,0,0,0,0,68,113,0,0,0,0,62,64,0,0,64,0,0,62,0,113,0,0,0,0,0,0,0,0,0,0,0,32,11,9,9,
6,34,0,63,0,63,62,111,0,0,62,62,64,0,0,0,63,64,0,0,0,64,63,63,0,0,0,0,0,0,68,64,68,68,0,0,0,0,0,0,64,64,0,64,0,62,62,0,0,0,0,0,0,0,0,0,0,0,0,0,32,11,9,9,
6,23,0,0,0,62,62,62,0,0,0,0,64,111,0,0,63,63,64,0,0,0,64,63,64,111,0,0,0,0,68,0,64,64,0,0,0,0,0,0,0,0,64,64,63,62,0,0,0,0,68,111,0,0,0,0,0,0,0,0,32,9,21,11,
54,67,0,0,0,62,0,0,0,0,0,0,62,62,0,62,63,64,0,0,0,0,0,0,0,0,0,0,0,0,0,68,0,0,0,0,0,0,0,0,0,0,0,0,62,63,62,113,0,0,0,68,68,68,0,0,0,0,0,0,32,21,11,9,
54,23,0,0,0,0,0,0,0,111,0,0,62,63,62,63,63,0,0,111,0,0,0,0,0,0,0,0,0,0,0,0,0,0,111,0,0,0,0,0,0,0,0,0,0,0,62,63,0,0,0,0,0,0,0,0,0,0,0,0,32,11,11,9,
54,109,1073741840,1073741840,1073741838,1073741839,1073741838,1073741840,1073741840,1073741842,1073741840,1073741838,1073741840,1073741840,1073741839,1073741841,1073741840,1073741838,1073741839,1073741842,1073741841,1073741839,1073741841,1073741841,1073741839,1073741840,1073741838,1073741839,1073741841,1073741839,1073741841,1073741838,1073741841,1073741839,1073741838,1073741838,1073741839,1073741839,1073741842,1073741842,1073741842,1073741838,1073741842,1073741840,1073741838,1073741841,1073741841,1073741838,1073741840,1073741842,1073741838,1073741839,1073741838,1073741842,1073741838,1073741838,1073741840,1073741842,1073741838,37,20,11,9,9,
1,2,3,4,1,2,3,4,5,6,2,3,4,5,6,3,4,5,6,2,3,4,5,6,2,3,4,5,6,3,4,5,6,4,5,6,2,3,4,5,6,3,4,5,1,2,3,4,5,1,2,3,4,1,2,3,4,1,2,109,20,9,9,9
</data>
 </layer>
</map>
